src/assets/clock.svg

<svg fill="none" height="20" viewBox="0 0 20 20" width="20" xmlns="http://www.w3.org/2000/svg"><g fill="#ff0202"><g clip-rule="evenodd" fill-rule="evenodd"><path d="m6.28555 15.0753c.59629.2033.87414.7558.6206 1.234l-1.65294 3.1177c-.25353.4783-.94246.7011-1.53876.4977-.59629-.2033-.87414-.7558-.6206-1.2341l1.65294-3.1177c.25353-.4782.94246-.701 1.53876-.4976z"/><path d="m13.7145 15.0753c-.5964.2033-.8742.7558-.6207 1.234l1.653 3.1177c.2536.4783.9425.7011 1.5387.4977.5964-.2033.8742-.7558.6207-1.2341l-1.653-3.1177c-.2536-.4782-.9425-.701-1.5387-.4976z"/><path d="m10.0378 6c.5732 0 1.0379.38684 1.0379.86403v2.40793h1.8865c.5732 0 1.0378.3868 1.0378.86404 0 .4772-.4646.864-1.0378.864h-2.9244c-.57315 0-1.0378-.3868-1.0378-.864v-3.27197c0-.47719.46465-.86403 1.0378-.86403z"/><path d="m9.99999 16.0117c3.29651 0 5.99591-2.6767 5.99591-6.0117 0-3.33502-2.6994-6.01169-5.99591-6.01169-3.29653 0-5.9959 2.67667-5.9959 6.01169 0 3.335 2.69937 6.0117 5.9959 6.0117zm0 1.9883c4.41831 0 8.00001-3.5817 8.00001-8 0-4.41827-3.5817-8-8.00001-8-4.41828 0-7.99999 3.58173-7.99999 8 0 4.4183 3.58171 8 7.99999 8z"/></g><path d="m2.54801 8c-.45766-.34098-.8348-.78706-1.10255-1.30412-.26776-.51704-.41905-1.09136-.4423-1.67905-.023257-.58768.08215-1.17314.30814-1.71161s.56659-1.0157.99575-1.39515c.42916-.37947.9355-.65113 1.48031-.79421.54482-.143077 1.11365-.153787 1.66302-.0313.54938.12248 1.06472.3749 1.50662.73797s.79867.82716 1.043 1.35677l-1.88426.95324c-.10553-.22874-.2596-.42916-.45045-.58596s-.41341-.26582-.65067-.31872c-.23726-.05289-.48292-.04826-.71821.01353s-.45397.17911-.63931.343c-.18534.16388-.33244.36997-.43003.60253-.0976.23255-.14313.48539-.13308.73919.01004.25381.07538.50184.19101.72514.11564.2233.27851.41595.47617.56322z"/><path d="m17.452 8c.4577-.34098.8348-.78706 1.1025-1.30412.2678-.51704.4191-1.09136.4423-1.67905.0233-.58768-.0821-1.17314-.308-1.71161-.2261-.53847-.5667-1.0157-.9958-1.39515-.4291-.37947-.9356-.65113-1.4803-.79421-.5448-.143077-1.1136-.153787-1.663-.0313-.5494.12248-1.0647.3749-1.5066.73797s-.7987.82716-1.0431 1.35677l1.8843.95324c.1055-.22874.2596-.42916.4505-.58596.1908-.1568.4134-.26582.6506-.31872.2373-.05289.4829-.04826.7182.01353s.454.17911.6393.343c.1853.16388.3325.36997.4301.60253.0976.23255.1431.48539.133.73919-.01.25381-.0753.50184-.191.72514-.1156.2233-.2784.41595-.4761.56322z"/></g></svg>

<svg width="20" height="20" viewBox="0 0 20 20" fill="none" xmlns="http://www.w3.org/2000/svg">
<path fill-rule="evenodd" clip-rule="evenodd" d="M6.28555 15.0753C6.88184 15.2786 7.15969 15.8311 6.90615 16.3093L5.25321 19.427C4.99968 19.9053 4.31075 20.1281 3.71445 19.9247C3.11816 19.7214 2.84031 19.1689 3.09385 18.6906L4.74679 15.5729C5.00032 15.0947 5.68925 14.8719 6.28555 15.0753Z" fill="#FF0202"/>
<path fill-rule="evenodd" clip-rule="evenodd" d="M13.7145 15.0753C13.1181 15.2786 12.8403 15.8311 13.0938 16.3093L14.7468 19.427C15.0004 19.9053 15.6893 20.1281 16.2855 19.9247C16.8819 19.7214 17.1597 19.1689 16.9062 18.6906L15.2532 15.5729C14.9996 15.0947 14.3107 14.8719 13.7145 15.0753Z" fill="#FF0202"/>
<path fill-rule="evenodd" clip-rule="evenodd" d="M10.0378 6C10.611 6 11.0757 6.38684 11.0757 6.86403V9.27196H12.9622C13.5354 9.27196 14 9.65876 14 10.136C14 10.6132 13.5354 11 12.9622 11H10.0378C9.46465 11 9 10.6132 9 10.136V6.86403C9 6.38684 9.46465 6 10.0378 6Z" fill="#FF0202"/>
<path fill-rule="evenodd" clip-rule="evenodd" d="M9.99999 16.0117C13.2965 16.0117 15.9959 13.335 15.9959 10C15.9959 6.66498 13.2965 3.98831 9.99999 3.98831C6.70346 3.98831 4.00409 6.66498 4.00409 10C4.00409 13.335 6.70346 16.0117 9.99999 16.0117ZM9.99999 18C14.4183 18 18 14.4183 18 10C18 5.58173 14.4183 2 9.99999 2C5.58171 2 2 5.58173 2 10C2 14.4183 5.58171 18 9.99999 18Z" fill="#FF0202"/>
<path d="M2.54801 8C2.09035 7.65902 1.71321 7.21294 1.44546 6.69588C1.1777 6.17884 1.02641 5.60452 1.00316 5.01683C0.979903 4.42915 1.08531 3.84369 1.3113 3.30522C1.53729 2.76675 1.87789 2.28952 2.30705 1.91007C2.73621 1.5306 3.24255 1.25894 3.78736 1.11586C4.33218 0.972783 4.90101 0.962073 5.45038 1.08456C5.99976 1.20704 6.5151 1.45946 6.957 1.82253C7.3989 2.1856 7.75567 2.64969 8 3.1793L6.11574 4.13254C6.01021 3.9038 5.85614 3.70338 5.66529 3.54658C5.47444 3.38978 5.25188 3.28076 5.01462 3.22786C4.77736 3.17497 4.5317 3.1796 4.29641 3.24139C4.06112 3.30318 3.84244 3.4205 3.6571 3.58439C3.47176 3.74827 3.32466 3.95436 3.22707 4.18692C3.12947 4.41947 3.08394 4.67231 3.09399 4.92611C3.10403 5.17992 3.16937 5.42795 3.285 5.65125C3.40064 5.87455 3.56351 6.0672 3.76117 6.21447L2.54801 8Z" fill="#FF0202"/>
<path d="M17.452 8C17.9097 7.65902 18.2868 7.21294 18.5545 6.69588C18.8223 6.17884 18.9736 5.60452 18.9968 5.01683C19.0201 4.42915 18.9147 3.84369 18.6888 3.30522C18.4627 2.76675 18.1221 2.28952 17.693 1.91007C17.2639 1.5306 16.7574 1.25894 16.2127 1.11586C15.6679 0.972783 15.0991 0.962073 14.5497 1.08456C14.0003 1.20704 13.485 1.45946 13.0431 1.82253C12.6012 2.1856 12.2444 2.64969 12 3.1793L13.8843 4.13254C13.9898 3.9038 14.1439 3.70338 14.3348 3.54658C14.5256 3.38978 14.7482 3.28076 14.9854 3.22786C15.2227 3.17497 15.4683 3.1796 15.7036 3.24139C15.9389 3.30318 16.1576 3.4205 16.3429 3.58439C16.5282 3.74827 16.6754 3.95436 16.773 4.18692C16.8706 4.41947 16.9161 4.67231 16.906 4.92611C16.896 5.17992 16.8307 5.42795 16.715 5.65125C16.5994 5.87455 16.4366 6.0672 16.2389 6.21447L17.452 8Z" fill="#FF0202"/>
</svg>
